X: 1
P: Morag's Waltz
C: by Tom Anderson
C: as played by Buddy MacMaster "Glencoe Hall"
C: arr. Terry Traub 8-17-07
R: Waltz
M: 3/4
K: D
L: 1/4
|: A/G/|"D"F2 D|"Em"G2 E|"A"A B c|"D"d2 F|"G"G2 B|"D"A2 F|"G"A G F|"A"E2 A/G/|
"D"F2 D|"Em"G2 E|"A"A B c|"Bm"d2 F|"G"G B e|"A"A c e|"D"d3-|[1 d2 :| [2 d c d ||
"A"e2 c|A2 a/g/|"D"f2 e|d2 f|"G"g2 B|"E"e2 d|"A"c e c|"A7"A2 A/G/|
"D"F A d|f d A|"G"G B e|"A"c2 A|"G"B<G e/d/|"A"c<A f/e/|"D"d3-| [1 d c d :| [2 d3 |]

